X:1
T:Title
%%score { ( 1 3 ) | ( 2 4 ) }
L:1/8
Q:1/4=106
M:4/4
K:F
V:1 treble nm="Grand Piano"
V:3 treble 
V:2 bass 
V:4 bass 
V:1
 A2 A2 A2 A2 | BcAB G4 | [EB]2 [EB]2 [Ec]2 [EG]2 | A6[K:bass] z2 | A2 A2 _A2 A2 | G^FG[Gc] [Ge]4 | %6
w: I.~H.~Meredith * * *||||||
 [C^FA]2 [CFA]2 [D=F=B]2 [=B,FG]2 | [Ec]6 z2 | [CA]2 [DA]2 [EA]2 [FA]2 | [FB]4 [EB]4 | %10
w: ||||
 [DB]2 [CEB]2 [GB]2 [CEB]2 | [DA]6[K:bass] z2 | [CA]2 [DA]2 [EA]2 [FA]2 | [Ec]4 [Ge]4 | %14
w: ||||
 [Af]2 [Af]2 [=Bf]2 [Gf]2 | [ce]6 z2 | [ce]2 [Bd]2 [DB]2 [Ec]2 | [FA]4 [Ac]4 | %18
w: ||||
 [ce]2 [Bd]2 [Gd]2 [_Ad]2 | [Ac]6[K:bass] z2 | [Ac]2 [Cc]2 [Bc]2 [Ac]2 | z4 [D=B]4 | %22
w: ||||
 [FB]2 [CEB]2 [DB]2 [CEB]2 | [CFA]6 z2 |] %24
w: ||
V:2
 [F,CF]2 [F,CF]2 [^F,C_E]2 [F,CE]2 | [G,B,D]2 [F,B,D]2 [E,B,C]4 | [C,C]2 [C,C]2 [C,G,]2 [C,C]2 | %3
 [F,CF]6 z2 | [F,CF]2 [F,CF]2 [^F,C_E]2 [F,CE]2 | .[G,E]2 .[G,=E]2 z4 | D,2 D,2 G,2 G,2 | %7
 z4 B,2 z2 | F,,2 [C,F,A,]2 C,,2 [C,F,A,]2 | G,,2 G,2 C,,2 G,2 | G,,2 G,2 C,,2 G,2 | %11
 F,,2 C,C, C,2 C,2 | F,,2 [C,F,A,]2 F,,2 [C,F,A,]2 | G,,2 E,2 G,,2 E,2 | %14
 D,,2 [F,A,D]2 G,,2 [G,=B,]2 | C,,2 E,E, E,2 E,2 | C,,2 [E,G,C]2 C,,2 [E,G,C]2 | %17
 F,,2 F,2 F,,2 F,2 | C,,2 [E,G,C]2 B,,,2 [D,F,B,]2 | A,,,2 ^C,C, C,2 C,2 | %20
 F,,2 [C,F,A,]2 F,,2 [C,F,A,]2 | G,,2 [D,G,=B,]2 [D,G,B,]2 D,2 | C,,2 G,2 C,,2 G,2 | F,6 z2 |] %24
V:3
 x8 | x8 | x8 | z2[K:bass] C,2 D,2 E,2 | x8 | x8 | x8 | C4 z4 | x8 | z2 C2 z2 C2 | x8 | %11
 z2[K:bass] [F,A,][F,A,] [F,A,]2 [F,A,]2 | x8 | z2 [G,C]2 z2 [G,C]2 | x8 | %15
 z2 [G,C][G,C] [G,C]2 [G,C]2 | x8 | z2 [A,C]2 z2 [A,C]2 | x8 | %19
 z2[K:bass] [E,A,][E,A,] [E,A,]2 [E,A,]2 | x8 | [G=B]2 [GB]2 z2 [G,=B,]2 | x8 | x8 |] %24
V:4
 x8 | x8 | x8 | x8 | x8 | C-[A,C_E]C-[E,C] [C,C]4 | x8 | C,6 z2 | x8 | x8 | x8 | x8 | x8 | x8 | %14
 x8 | x8 | x8 | x8 | x8 | x8 | x8 | x8 | x8 | z2 C,2 F,,2 z2 |] %24

